X:1
T:Title
%%score { ( 1 4 5 ) | ( 2 3 ) }
L:1/8
Q:1/4=106
M:4/4
K:Db
V:1 treble nm="Grand Piano"
V:4 treble 
V:5 treble 
V:2 bass 
V:3 bass 
V:1
 F2 F>E D2 F>[FA] | [Fd]2 [Ac]2 [GB]4 | [FA]2 [GB]>[FA] F2 D2 | E4 A4 | F2 F>E D2 F>[FA] | %5
w: Frank~M.~Davis * * * * *|||||
 [Fd]2 [Ac]2 B4 | ed c>B A2 [Gc]2 | [Fd]6 z2 | [FA]6 z2 | [FA]4 [DF]2 z2 | [EG]6 z2 | [FA]4 z4 | %12
w: |||||||
 F>F F>E D2 F>[FA] | [Fd]>[Fd] [Fd]>[Ac] B2 B>B | ed c>B A2 [Gc]>[Gc] | [Fd]6 z2 |] %16
w: ||||
V:2
 [D,A,D]2 [D,A,D]>[D,G,D] [D,F,]2 [D,A,D]>[D,D] | [D,A,]2 [F,D]2 [G,D]4 | %2
 [D,D]2 [D,D]>[D,D] [D,A,D]2 [F,A,]2 | C4 z4 | [D,A,D]2 [D,A,D]>[D,G,D] [D,F,]2 [D,A,D]>[D,D] | %5
 [D,A,]2 [F,D]2[K:treble] [G,DG]4 | [G,B,G]2 [G,DA]>[G,DG] [A,DF]2[K:bass] [A,,A,]2 | [D,A,]6 z2 | %8
 [D,D]D,D,D, D,[D,D][K:treble]FF | D,D,D,D, D,D, z2 | A,A,A,A, z[K:treble] DEG | %11
 D,D,D,D, [D,A,]2 [D,D]>[D,A,] | [D,A,D]>[D,A,D] [D,A,D]>[D,G,D] [D,F,]2 [D,A,D]>[D,D] | %13
 [D,A,]>[D,A,] [D,A,]>[F,D][K:treble] [G,DG]2 [G,DG]>[G,DG] | %14
 [G,B,G][G,B,G] [G,DA]>[G,DG] [A,DF]2[K:bass] [A,,A,]>[A,,A,] | [D,A,]6 z2 |] %16
V:3
 x8 | x8 | x8 | A,8 | x8 | x4[K:treble] x4 | x6[K:bass] x2 | x8 | x6[K:treble] x2 | x8 | %10
 z4 A,2[K:treble] z2 | x8 | x8 | x4[K:treble] x4 | x6[K:bass] x2 | x8 |] %16
V:4
 x8 | x8 | x8 | x8 | x8 | x8 | x8 | x8 | z DDD DFAd | DDDD A,A, z2 | CCCC z FGB | %11
 DDDD [DF]2 [FA]>[EG] | x8 | x8 | x8 | x8 |] %16
V:5
 x8 | x8 | x8 | x8 | x8 | x8 | x8 | x8 | x8 | x8 | z4 C2 z2 | x8 | x8 | x8 | x8 | x8 |] %16

